public/assets/images/icons/green/visibility-visible/folder-group-empty2.svg

<svg width="16" height="16" xmlns="http://www.w3.org/2000/svg" viewBox="0 0 16 16" shape-rendering="geometricPrecision" fill="#00962d"><defs><mask id="a"><rect fill="#fff" width="100%" height="100%"/><path d="M12.997.858a4.809 4.809 0 0 0-4.253 2.563 4.81 4.81 0 0 0 8.506 0A4.812 4.812 0 0 0 12.997.858z" fill="#000"/></mask></defs><path d="M12.971 1.607c-1.315 0-2.454.74-3.029 1.825a3.425 3.425 0 0 0 6.058 0 3.43 3.43 0 0 0-3.029-1.825z" fill="#cb1800"/><path mask="url(#a)" d="M7.394 4.755l-.816-1.923h-3.78l-.816 1.923H.861V14h14.278V4.755H7.394zm3.044 3.549a.978.978 0 1 1 .002 1.956.978.978 0 0 1-.002-1.956zM7.733 6.062a.978.978 0 1 1 .003 1.955.978.978 0 0 1-.003-1.955zM5.567 7.145a.978.978 0 1 1 0 1.957.98.98 0 0 1 0-1.957zm1.389 4.59H4.178V10.51c0-.519.422-.944.941-.944h.894c.518 0 .943.425.943.944v1.225zm-.608-2.346a.94.94 0 0 1 .936-.905h.894c.519 0 .943.425.943.943v1.226H7.188v-.143c0-.532-.356-.976-.84-1.121zm5.48 3.505H9.05v-1.226c0-.518.421-.943.94-.943h.894c.519 0 .944.425.944.943v1.226z"/></svg>

<?xml version="1.0"?><!DOCTYPE svg PUBLIC "-//W3C//DTD SVG 1.1//EN" "http://www.w3.org/Graphics/SVG/1.1/DTD/svg11.dtd"><svg width="16px" height="16px" xmlns="http://www.w3.org/2000/svg" viewBox="0 0 16 16" shape-rendering="geometricPrecision" fill="#00962d"><defs><mask id="visibility-visible-path"><rect fill="#fff" width="100%" height="100%"/><path d="M12.997,0.858c-1.845,0-3.446,1.039-4.253,2.563c0.808,1.523,2.408,2.562,4.253,2.562 c1.844,0,3.444-1.039,4.253-2.562C16.441,1.897,14.841,0.858,12.997,0.858z" fill="#000"/></mask></defs><path display="inline" d="M12.971,1.607c-1.315,0-2.454,0.74-3.029,1.825 c0.575,1.085,1.715,1.825,3.029,1.825c1.314,0,2.453-0.74,3.029-1.825C15.424,2.348,14.284,1.607,12.971,1.607z" fill="#cb1800"/><path mask="url(#visibility-visible-path)" d="M7.394,4.755L6.578,2.832H2.798L1.982,4.755H0.861V14h14.278V4.755H7.394z M10.438,8.304 c0.542,0,0.979,0.438,0.979,0.979c0,0.54-0.437,0.978-0.979,0.978c-0.54,0-0.978-0.438-0.978-0.978 C9.46,8.742,9.898,8.304,10.438,8.304z M7.733,6.062c0.542,0,0.979,0.438,0.979,0.978c0,0.541-0.437,0.979-0.979,0.979 c-0.54,0-0.978-0.438-0.978-0.979C6.754,6.5,7.193,6.062,7.733,6.062z M5.567,7.145c0.542,0,0.979,0.438,0.979,0.978 c0,0.541-0.437,0.979-0.979,0.979c-0.54,0-0.979-0.438-0.979-0.979C4.588,7.583,5.027,7.145,5.567,7.145z M6.956,11.735H4.178 V10.51c0-0.519,0.422-0.944,0.941-0.944h0.894c0.518,0,0.943,0.425,0.943,0.944V11.735z M6.348,9.389 c0.02-0.502,0.43-0.905,0.936-0.905h0.894c0.519,0,0.943,0.425,0.943,0.943v1.226H7.188V10.51C7.188,9.978,6.832,9.534,6.348,9.389 z M11.828,12.894H9.05v-1.226c0-0.518,0.421-0.943,0.94-0.943h0.894c0.519,0,0.944,0.425,0.944,0.943V12.894z"/></svg>
